X:129
T: SCHLAF HERZENSSOEHNCHEN
N: B0620
O: Europa, Mitteleuropa, Deutschland
R: Kinder -, Wiegen - Lied
M: 3/8
L: 1/16
K: C
 | G2E2F2 | G3ec2 | B2A2B2 | c6 |
B2B2B2 | c2B2e2 | d3cA2 | G6 |
G2G2G2 | A2G2G2 | G2G2Gc | c6 |
B2A2B2 | c2E2A2 | G3FD2 | C4z2

@@@ Tune index: 2347
